X: 34
T:Irish Washerwoman, The
M:6/8
L:1/8
Q:120
R:Jig
K:G
d/2c/2|"G"BGG DGG|BGB dcB|"Am"cAA DAA|cAc edc|
"G"BGG DGG|BGB dcB|"Am"cBc "D"Adc|"G"BGG G2::
d|"G"gfg GBd|gfg bag|"D"fef FAd|fef agf|
"C"egg "D"dgg|"C"cgg "G"Bgg|"C"cBc "D"Adc|"G"BGG G2:|
